incomeartour/img/countries/europe/andorra.svg

<svg width="26" height="25" viewBox="0 0 26 25" fill="none" xmlns="http://www.w3.org/2000/svg">
<g clip-path="url(#clip0_192:4949)">
<path d="M8.40073 20.6892H0.498438C0.2604 20.6892 0.0673828 20.4962 0.0673828 20.2582V4.74099C0.0673828 4.50295 0.2604 4.30994 0.498438 4.30994H8.40073V20.6892Z" fill="#41479B"/>
<path d="M16.7344 4.31018H8.40088V20.6896H16.7344V4.31018Z" fill="#FFE15A"/>
<path d="M24.6362 20.6892H16.7339V4.30994H24.6362C24.8742 4.30994 25.0672 4.50295 25.0672 4.74099V20.2582C25.0672 20.4963 24.8742 20.6892 24.6362 20.6892Z" fill="#FF4B55"/>
<path d="M15.4979 13.9005C15.4979 13.7754 15.3965 13.6739 15.2714 13.6739C15.2442 13.6739 15.2185 13.6795 15.1944 13.6883C15.0822 13.5886 14.8791 13.3412 15.0829 12.9918C15.1105 13.0132 15.1447 13.0265 15.1823 13.0265C15.2722 13.0265 15.345 12.9537 15.345 12.8638C15.345 12.7928 15.2992 12.7331 15.2358 12.7108C15.4033 12.6254 15.6423 12.444 15.63 12.1048C15.6124 11.6237 15.2184 11.3582 14.9766 11.4644C14.9775 11.4576 14.9787 11.451 14.9787 11.444C14.9787 11.3554 14.9069 11.2836 14.8182 11.2836C14.7637 11.2836 14.7158 11.3109 14.6868 11.3524C14.677 11.3043 14.6781 11.215 14.79 11.1185C14.9976 10.9391 15.2336 10.5096 14.8041 10.2076C14.5663 10.0403 14.1117 9.96021 13.9593 10.1887C13.8933 10.2878 13.9463 10.4302 14.0217 10.4622C13.9002 10.5299 13.6696 10.6316 13.4874 10.5521C13.2279 10.4389 13.3778 10.214 13.4355 10.1132C13.537 9.93623 13.4733 9.646 13.1335 9.646C12.9069 9.646 12.7937 9.87256 12.5672 9.87256C12.3406 9.87256 12.2274 9.646 12.0009 9.646C11.6611 9.646 11.5973 9.93623 11.6988 10.1132C11.7566 10.2139 11.9065 10.4389 11.6469 10.5521C11.4647 10.6317 11.2342 10.5299 11.1126 10.4622C11.188 10.4302 11.241 10.2878 11.175 10.1887C11.0227 9.96025 10.568 10.0403 10.3302 10.2076C9.9007 10.5096 10.1367 10.9391 10.3444 11.1185C10.4562 11.215 10.4573 11.3043 10.4475 11.3524C10.4185 11.3109 10.3705 11.2836 10.3161 11.2836C10.2275 11.2836 10.1556 11.3554 10.1556 11.444C10.1556 11.451 10.1568 11.4577 10.1577 11.4644C9.91594 11.3582 9.52185 11.6237 9.50437 12.1048C9.49201 12.4439 9.73098 12.6253 9.89851 12.7108C9.83508 12.7331 9.78933 12.7928 9.78933 12.8638C9.78933 12.9537 9.86218 13.0265 9.95202 13.0265C9.98962 13.0265 10.0238 13.0133 10.0514 12.9918C10.2552 13.3412 10.0521 13.5886 9.93996 13.6883C9.91584 13.6795 9.89011 13.6739 9.86296 13.6739C9.73786 13.6739 9.6364 13.7753 9.6364 13.9005C9.6364 14.0179 9.7261 14.1134 9.8406 14.1248C9.68444 14.2852 9.54436 14.6387 9.8488 15.0403C10.1815 15.4792 10.9744 15.4438 11.3567 15.458C11.599 15.4669 11.7814 15.5924 11.8826 15.6832C11.8179 15.7231 11.7743 15.794 11.7743 15.8756C11.7743 15.99 11.8594 16.0836 11.9697 16.099C12.0097 16.163 12.0802 16.206 12.1613 16.206C12.252 16.206 12.3296 16.1524 12.3658 16.0754C12.4855 16.174 12.5673 16.2154 12.5673 16.2154C12.5673 16.2154 12.649 16.1741 12.7687 16.0754C12.8049 16.1523 12.8825 16.206 12.9732 16.206C13.0543 16.206 13.1248 16.163 13.1649 16.099C13.2751 16.0836 13.3602 15.99 13.3602 15.8756C13.3602 15.7939 13.3166 15.723 13.2519 15.6832C13.3531 15.5924 13.5354 15.4669 13.7779 15.458C14.1601 15.4438 14.953 15.4792 15.2857 15.0403C15.5901 14.6387 15.4501 14.2852 15.2939 14.1248C15.4082 14.1133 15.4979 14.0179 15.4979 13.9005Z" fill="#DCBE82"/>
<path d="M10.5283 10.9909V14.2757C10.5283 14.6511 10.8326 14.9554 11.208 14.9554H12.1141C12.4539 14.9554 12.5672 15.1819 12.5672 15.1819C12.5672 15.1819 12.6804 14.9554 13.0203 14.9554H13.9264C14.3018 14.9554 14.6061 14.6511 14.6061 14.2757V10.9909C14.6061 10.9284 14.5554 10.8777 14.4928 10.8777H10.6417C10.579 10.8777 10.5283 10.9284 10.5283 10.9909Z" fill="#D2AA73"/>
<path d="M12.4539 11.1041H10.7549V12.8031H12.4539V11.1041Z" fill="#FF4B55"/>
<path d="M12.4539 14.7288C11.5155 14.7288 10.7549 13.9682 10.7549 13.0298H12.4539V14.7288Z" fill="#FF4B55"/>
<path d="M12.6807 14.7288V13.0298H14.3797C14.3796 13.9681 13.6189 14.7288 12.6807 14.7288Z" fill="#FFE15A"/>
<path d="M12.9234 11.1041H12.6807V12.8031H12.9234V11.1041Z" fill="#FFE15A"/>
<path d="M13.1661 11.1041H12.9233V12.8031H13.1661V11.1041Z" fill="#FF4B55"/>
<path d="M13.4083 11.1041H13.1655V12.8031H13.4083V11.1041Z" fill="#FFE15A"/>
<path d="M13.6519 11.1041H13.4092V12.8031H13.6519V11.1041Z" fill="#FF4B55"/>
<path d="M13.8941 11.1041H13.6514V12.8031H13.8941V11.1041Z" fill="#FFE15A"/>
<path d="M14.3794 11.1041H14.1367V12.8031H14.3794V11.1041Z" fill="#FFE15A"/>
<path d="M14.1373 11.1041H13.8945V12.8031H14.1373V11.1041Z" fill="#FF4B55"/>
<path d="M11.5101 13.0299H11.3213V14.7289H11.5101V13.0299Z" fill="#FF4B55"/>
<path d="M11.6995 13.0299H11.5107V14.7289H11.6995V13.0299Z" fill="#FFE15A"/>
<path d="M12.0774 13.0299H11.8887V14.7289H12.0774V13.0299Z" fill="#FFE15A"/>
<path d="M11.8875 13.0299H11.6987V14.7289H11.8875V13.0299Z" fill="#FF4B55"/>
<path d="M12.4539 13.0299H12.2651V14.7289H12.4539V13.0299Z" fill="#FFE15A"/>
<path d="M12.2649 13.0299H12.0762V14.7289H12.2649V13.0299Z" fill="#FF4B55"/>
<path d="M10.9437 14.6424V13.0298H10.7549V14.2757C10.7549 14.427 10.8297 14.5601 10.9437 14.6424Z" fill="#FFE15A"/>
<path d="M11.1326 14.7211V13.0297H10.9438V14.6423C10.9988 14.682 11.0628 14.7094 11.1326 14.7211Z" fill="#FF4B55"/>
<path d="M11.1328 13.0298V14.7212C11.1575 14.7254 11.1824 14.7289 11.2083 14.7289H11.3216V13.0298H11.1328V13.0298V13.0298Z" fill="#FFE15A"/>
<path d="M11.0076 12.7068C10.9991 12.7068 10.9906 12.7044 10.983 12.6995C10.8716 12.6257 10.8651 12.549 10.8712 12.5098C10.8794 12.4569 10.9187 12.413 10.9715 12.3979C11.0217 12.3838 11.0717 12.3986 11.1056 12.4379C11.1759 12.5196 11.2485 12.5518 11.3096 12.5292C11.358 12.5113 11.3869 12.4636 11.3869 12.4279C11.3869 12.4033 11.4068 12.3833 11.4315 12.3833C11.4562 12.3833 11.4761 12.4032 11.4761 12.4279C11.4761 12.506 11.4192 12.5837 11.3407 12.6128C11.2833 12.634 11.1679 12.6471 11.0379 12.4961C11.024 12.48 11.0076 12.4805 10.996 12.4837C10.9801 12.4882 10.9626 12.5023 10.9594 12.5233C10.9546 12.5541 10.9812 12.5911 11.0322 12.625C11.0528 12.6385 11.0584 12.6663 11.0448 12.6868C11.0362 12.6997 11.0221 12.7068 11.0076 12.7068Z" fill="#F5F5F5"/>
<path d="M12.2053 12.7069C12.1909 12.7069 12.1767 12.6998 12.1681 12.6869C12.1545 12.6663 12.1602 12.6386 12.1807 12.6251C12.2317 12.5912 12.2583 12.5542 12.2536 12.5235C12.2503 12.5024 12.2328 12.4884 12.217 12.4838C12.2054 12.4806 12.1889 12.4801 12.175 12.4962C12.045 12.6473 11.9296 12.6343 11.8723 12.613C11.7937 12.5839 11.7368 12.506 11.7368 12.4281C11.7368 12.4034 11.7567 12.3834 11.7814 12.3834C11.8061 12.3834 11.8261 12.4033 11.8261 12.4281C11.8261 12.4637 11.8549 12.5114 11.9033 12.5293C11.9645 12.552 12.0371 12.5198 12.1074 12.438C12.1412 12.3985 12.1913 12.3838 12.2415 12.398C12.2942 12.4131 12.3336 12.457 12.3417 12.5099C12.3478 12.549 12.3413 12.6259 12.2299 12.6996C12.2224 12.7044 12.2138 12.7069 12.2053 12.7069Z" fill="#F5F5F5"/>
<path d="M10.9831 12.7597C10.9737 12.7597 10.9642 12.7567 10.9561 12.7507C10.9364 12.7357 10.9327 12.7078 10.9476 12.6881L11.9175 11.4128C11.9268 11.396 11.9303 11.3729 11.9343 11.3461C11.9418 11.296 11.9511 11.2337 12.0276 11.1877C12.0775 11.1578 12.1366 11.1586 12.1861 11.1902C12.2406 11.2251 12.2728 11.29 12.2662 11.3518C12.2622 11.3894 12.2403 11.4579 12.1386 11.4955C12.1154 11.5041 12.0898 11.4922 12.0813 11.4692C12.0728 11.4461 12.0845 11.4204 12.1076 11.4119C12.1372 11.4009 12.1734 11.3799 12.1774 11.3423C12.1805 11.3138 12.1643 11.2823 12.138 11.2654C12.1233 11.256 12.1002 11.2479 12.0736 11.2642C12.0331 11.2885 12.0291 11.3152 12.0224 11.3594C12.0177 11.3907 12.0124 11.4261 11.9915 11.4622L11.0185 12.7421C11.0099 12.7537 10.9966 12.7597 10.9831 12.7597Z" fill="#FFE15A"/>
<path d="M11.6103 11.3569L11.1641 11.8924L11.3425 12.4278H11.878L12.0564 11.8924L11.6103 11.3569Z" fill="#FFE15A"/>
<path d="M11.6106 11.2872L11.1143 11.8829L11.3107 12.4724H11.9104L12.1069 11.8829L11.6106 11.2872ZM11.2146 11.9019L11.566 11.4802V12.3832H11.375L11.2146 11.9019ZM11.8462 12.3832H11.6552V11.4802L12.0066 11.9019L11.8462 12.3832Z" fill="#F5F5F5"/>
<path d="M13.9616 13.5662L13.9683 13.4672C13.9683 13.4672 14.0561 13.4042 14.0133 13.3457C13.9706 13.2872 13.921 13.2759 13.8175 13.2895C13.714 13.303 13.552 13.3007 13.4823 13.3052C13.4125 13.3097 13.3765 13.3479 13.2663 13.3165L13.2955 13.2489C13.2955 13.2489 13.2438 13.2535 13.2123 13.2692C13.1951 13.2778 13.1538 13.2219 13.1133 13.231C13.0729 13.2399 13.0323 13.3232 12.9692 13.366L13.003 13.4335C13.003 13.4335 13.0412 13.4155 13.0705 13.4358C13.0998 13.456 13.1087 13.4695 13.1583 13.4695L13.1898 13.483C13.1898 13.483 13.1786 13.555 13.2258 13.5888C13.2258 13.5888 13.1718 13.6586 13.1786 13.6697C13.1853 13.681 13.2303 13.7665 13.2483 13.816L13.2889 13.7395C13.2889 13.7395 13.2281 13.6855 13.2394 13.6787C13.2506 13.6719 13.2911 13.663 13.2843 13.6449C13.2776 13.6269 13.3159 13.6472 13.3586 13.6539C13.3586 13.6539 13.3608 13.7214 13.3699 13.7304C13.3789 13.7394 13.3924 13.7754 13.3901 13.8137C13.3879 13.8519 13.3542 13.8632 13.3542 13.8632L13.4149 13.8812C13.4149 13.8812 13.4307 13.8587 13.4419 13.8609C13.4419 13.8609 13.4374 13.6742 13.4622 13.6449C13.4622 13.6449 13.6084 13.6742 13.6759 13.6382C13.6759 13.6382 13.6846 13.6491 13.7014 13.6594C13.6947 13.6751 13.689 13.6907 13.6915 13.6953C13.6972 13.7055 13.7152 13.7044 13.7197 13.6931C13.7214 13.6888 13.7241 13.6801 13.7267 13.6711C13.7349 13.6737 13.7438 13.6758 13.754 13.6769C13.753 13.6911 13.7529 13.7042 13.7562 13.7072C13.7647 13.7151 13.7815 13.7084 13.7823 13.6962C13.7826 13.6922 13.7824 13.6848 13.7822 13.6768C13.7938 13.6758 13.8063 13.6737 13.8199 13.6697L13.7434 13.7957L13.7052 13.8114L13.7547 13.8362L13.7997 13.8182C13.7997 13.8182 13.8424 13.7102 13.9122 13.6787C13.9122 13.6787 13.9594 13.7912 13.9009 13.852L13.9526 13.8812L13.9773 13.8295C13.9773 13.8295 13.9684 13.7282 14.0021 13.663L13.9616 13.5662Z" fill="#FF4B55"/>
<path d="M13.1153 13.2448C13.1153 13.2448 13.0928 13.2234 13.0871 13.1951C13.0814 13.1669 13.0747 13.1545 13.0498 13.1466C13.0498 13.1466 13.0656 13.1647 13.0634 13.1929C13.0611 13.2211 13.0634 13.2595 13.0792 13.2719L13.1153 13.2448Z" fill="#4173CD"/>
<path d="M13.3121 13.3244C13.3121 13.3244 13.2813 13.4288 13.1911 13.4831L13.1597 13.4696C13.1597 13.4696 13.256 13.3872 13.2677 13.3165L13.3121 13.3244Z" fill="#4173CD"/>
<path d="M13.1584 13.2696C13.1552 13.2662 13.1979 13.2538 13.1877 13.2199C13.1775 13.186 13.1775 13.1612 13.1979 13.1454C13.1979 13.1454 13.2002 13.1736 13.216 13.1917C13.2318 13.2097 13.2408 13.2549 13.2149 13.2809C13.2149 13.2809 13.1888 13.3012 13.1584 13.2696Z" fill="#4173CD"/>
<path d="M13.1628 13.5774C13.1575 13.5748 13.1552 13.5682 13.1579 13.5628L13.1715 13.5351C13.1794 13.5188 13.1742 13.4986 13.1585 13.4896C13.1413 13.4796 13.1196 13.4865 13.111 13.504L13.0968 13.5328C13.0942 13.5382 13.0876 13.5405 13.0822 13.5378L13.0737 13.5551C13.0737 13.5551 13.0862 13.5612 13.1014 13.5687L13.101 13.5693C13.0976 13.5763 13.1005 13.5848 13.1075 13.5882C13.1145 13.5917 13.1229 13.5887 13.1264 13.5817L13.1267 13.5811C13.1418 13.5885 13.1543 13.5947 13.1543 13.5947L13.1628 13.5774Z" fill="#4173CD"/>
<path d="M13.2725 13.7676L13.3063 13.7744L13.278 13.8613L13.2495 13.816L13.2725 13.7676Z" fill="#4173CD"/>
<path d="M13.3552 13.8633L13.3345 13.8998H13.4158L13.4159 13.8813L13.3552 13.8633Z" fill="#4173CD"/>
<path d="M13.7559 13.8363V13.858H13.6636L13.7082 13.8134L13.7559 13.8363Z" fill="#4173CD"/>
<path d="M13.902 13.8519L13.8564 13.8976H13.9523L13.9538 13.8812L13.902 13.8519Z" fill="#4173CD"/>
<path d="M13.9616 14.2711L13.9683 14.1722C13.9683 14.1722 14.0561 14.1092 14.0133 14.0507C13.9706 13.9922 13.921 13.9809 13.8175 13.9944C13.714 14.0079 13.552 14.0057 13.4823 14.0101C13.4125 14.0147 13.3765 14.0529 13.2663 14.0214L13.2955 13.9539C13.2955 13.9539 13.2438 13.9584 13.2123 13.9742C13.1951 13.9828 13.1538 13.9269 13.1133 13.9359C13.0729 13.9449 13.0323 14.0282 12.9692 14.0709L13.003 14.1385C13.003 14.1385 13.0412 14.1204 13.0705 14.1407C13.0998 14.161 13.1087 14.1745 13.1583 14.1745L13.1898 14.188C13.1898 14.188 13.1786 14.26 13.2258 14.2937C13.2258 14.2937 13.1718 14.3635 13.1786 14.3747C13.1853 14.386 13.2303 14.4715 13.2483 14.5209L13.2889 14.4444C13.2889 14.4444 13.2281 14.3904 13.2394 14.3836C13.2506 14.3769 13.2911 14.3679 13.2843 14.3499C13.2776 14.3319 13.3159 14.3521 13.3586 14.3589C13.3586 14.3589 13.3608 14.4264 13.3699 14.4354C13.3789 14.4444 13.3924 14.4804 13.3901 14.5186C13.3879 14.5569 13.3542 14.5682 13.3542 14.5682L13.4149 14.5862C13.4149 14.5862 13.4307 14.5637 13.4419 14.5659C13.4419 14.5659 13.4374 14.3791 13.4622 14.3499C13.4622 14.3499 13.6084 14.3791 13.6759 14.3432C13.6759 14.3432 13.6846 14.354 13.7014 14.3644C13.6947 14.3801 13.689 14.3957 13.6915 14.4003C13.6972 14.4105 13.7152 14.4093 13.7197 14.398C13.7214 14.3938 13.7241 14.385 13.7267 14.376C13.7349 14.3787 13.7438 14.3808 13.754 14.3818C13.753 14.396 13.7529 14.4091 13.7562 14.4121C13.7647 14.42 13.7815 14.4133 13.7823 14.4012C13.7826 14.3972 13.7824 14.3897 13.7822 14.3817C13.7938 14.3808 13.8063 14.3787 13.8199 14.3746L13.7434 14.5007L13.7052 14.5164L13.7547 14.5411L13.7997 14.5231C13.7997 14.5231 13.8424 14.4151 13.9122 14.3836C13.9122 14.3836 13.9594 14.4961 13.9009 14.5569L13.9526 14.5862L13.9773 14.5344C13.9773 14.5344 13.9684 14.4332 14.0021 14.3679L13.9616 14.2711Z" fill="#FF4B55"/>
<path d="M13.1153 13.9498C13.1153 13.9498 13.0928 13.9283 13.0871 13.9001C13.0814 13.8719 13.0747 13.8594 13.0498 13.8516C13.0498 13.8516 13.0656 13.8696 13.0634 13.8979C13.0611 13.9261 13.0634 13.9645 13.0792 13.9769L13.1153 13.9498Z" fill="#4173CD"/>
<path d="M13.3117 14.0293C13.3117 14.0293 13.281 14.1337 13.1907 14.188L13.1592 14.1745C13.1592 14.1745 13.2555 14.0922 13.2672 14.0215L13.3117 14.0293Z" fill="#4173CD"/>
<path d="M13.1584 13.9745C13.1552 13.9712 13.1979 13.9587 13.1877 13.9249C13.1775 13.891 13.1775 13.8661 13.1979 13.8503C13.1979 13.8503 13.2002 13.8786 13.216 13.8966C13.2318 13.9147 13.2408 13.9599 13.2149 13.9858C13.2149 13.9858 13.1888 14.0061 13.1584 13.9745Z" fill="#4173CD"/>
<path d="M13.1628 14.2824C13.1575 14.2797 13.1552 14.2731 13.1579 14.2678L13.1715 14.24C13.1794 14.2238 13.1742 14.2035 13.1585 14.1945C13.1413 14.1846 13.1196 14.1914 13.111 14.209L13.0968 14.2378C13.0942 14.2431 13.0876 14.2454 13.0822 14.2428L13.0737 14.26C13.0737 14.26 13.0862 14.2662 13.1014 14.2736L13.101 14.2742C13.0976 14.2812 13.1005 14.2897 13.1075 14.2931C13.1145 14.2966 13.1229 14.2937 13.1264 14.2867L13.1267 14.2861C13.1418 14.2935 13.1543 14.2996 13.1543 14.2996L13.1628 14.2824Z" fill="#4173CD"/>
<path d="M13.2725 14.4725L13.3063 14.4793L13.278 14.5663L13.2495 14.5209L13.2725 14.4725Z" fill="#4173CD"/>
<path d="M13.3552 14.5682L13.3345 14.6048H13.4158L13.4159 14.5862L13.3552 14.5682Z" fill="#4173CD"/>
<path d="M13.7559 14.5412V14.5629H13.6636L13.7082 14.5183L13.7559 14.5412Z" fill="#4173CD"/>
<path d="M13.902 14.5569L13.8564 14.6025H13.9523L13.9538 14.5861L13.902 14.5569Z" fill="#4173CD"/>
</g>
<defs>
<clipPath id="clip0_192:4949">
<rect width="25" height="25" fill="white" transform="translate(0.0673828 -0.000244141)"/>
</clipPath>
</defs>
</svg>

<svg width="26" height="25" fill="none" xmlns="http://www.w3.org/2000/svg"><g clip-path="url(#clip0_192:4949)"><path d="M8.4 20.69H.499a.431.431 0 01-.43-.432V4.741a.43.43 0 01.43-.431h7.903v16.38z" fill="#41479B"/><path d="M16.734 4.31H8.401v16.38h8.333V4.31z" fill="#FFE15A"/><path d="M24.636 20.69h-7.902V4.31h7.902c.238 0 .431.193.431.431v15.517a.431.431 0 01-.43.431z" fill="#FF4B55"/><path d="M15.498 13.9a.227.227 0 00-.304-.212c-.112-.1-.315-.347-.111-.696a.162.162 0 00.262-.128.162.162 0 00-.11-.153c.168-.086.407-.267.395-.606-.018-.481-.412-.747-.653-.64l.002-.021a.16.16 0 00-.292-.092c-.01-.048-.009-.137.103-.234.208-.179.444-.608.014-.91-.238-.168-.692-.248-.845-.02-.066.1-.013.242.063.274-.122.068-.352.17-.535.09-.26-.113-.11-.338-.052-.439.102-.177.038-.467-.302-.467-.226 0-.34.227-.566.227-.226 0-.34-.227-.566-.227-.34 0-.404.29-.302.467.058.1.207.326-.052.44-.182.079-.413-.023-.534-.09.075-.033.128-.175.062-.274-.152-.229-.607-.149-.845.019-.43.302-.193.731.014.91.112.097.113.186.104.234a.16.16 0 00-.292.092c0 .007 0 .014.002.02-.242-.106-.636.16-.654.64-.012.34.227.521.395.607a.162.162 0 10.152.28c.204.35.001.598-.111.697a.224.224 0 00-.304.212c0 .118.09.213.205.225-.157.16-.297.514.008.915.332.44 1.125.404 1.508.418a.846.846 0 01.526.225.226.226 0 00.087.416.226.226 0 00.396-.024c.12.099.201.14.201.14s.082-.04.202-.14a.226.226 0 00.396.024.226.226 0 00.087-.416.845.845 0 01.526-.225c.382-.014 1.175.021 1.508-.418.304-.401.164-.755.008-.915a.226.226 0 00.204-.225z" fill="#DCBE82"/><path d="M10.528 10.99v3.286c0 .375.305.68.68.68h.906c.34 0 .453.226.453.226s.113-.227.453-.227h.906a.68.68 0 00.68-.68v-3.284a.113.113 0 00-.113-.113h-3.851a.113.113 0 00-.114.113z" fill="#D2AA73"/><path d="M12.454 11.104h-1.7v1.7h1.7v-1.7zm0 3.625a1.7 1.7 0 01-1.7-1.7h1.7v1.7z" fill="#FF4B55"/><path d="M12.68 14.729v-1.7h1.7a1.7 1.7 0 01-1.7 1.7zm.243-3.625h-.242v1.7h.242v-1.7z" fill="#FFE15A"/><path d="M13.166 11.104h-.243v1.7h.243v-1.7z" fill="#FF4B55"/><path d="M13.408 11.104h-.242v1.7h.242v-1.7z" fill="#FFE15A"/><path d="M13.652 11.104h-.243v1.7h.243v-1.7z" fill="#FF4B55"/><path d="M13.894 11.104h-.243v1.7h.243v-1.7zm.486 0h-.243v1.7h.242v-1.7z" fill="#FFE15A"/><path d="M14.137 11.104h-.242v1.7h.242v-1.7zM11.51 13.03h-.189v1.699h.19v-1.7z" fill="#FF4B55"/><path d="M11.7 13.03h-.19v1.699h.19v-1.7zm.377 0h-.188v1.699h.188v-1.7z" fill="#FFE15A"/><path d="M11.887 13.03H11.7v1.699h.188v-1.7z" fill="#FF4B55"/><path d="M12.454 13.03h-.189v1.699h.189v-1.7z" fill="#FFE15A"/><path d="M12.265 13.03h-.189v1.699h.189v-1.7z" fill="#FF4B55"/><path d="M10.944 14.642V13.03h-.19v1.246c0 .151.076.284.19.366z" fill="#FFE15A"/><path d="M11.133 14.721V13.03h-.19v1.612c.056.04.12.067.19.08z" fill="#FF4B55"/><path d="M11.133 13.03v1.691c.025.004.05.008.075.008h.114v-1.7h-.19z" fill="#FFE15A"/><path d="M11.008 12.707a.045.045 0 01-.025-.008c-.111-.073-.118-.15-.112-.19a.14.14 0 01.1-.111c.05-.014.1 0 .135.04.07.082.143.114.204.091.048-.018.077-.065.077-.101a.045.045 0 11.09 0 .207.207 0 01-.136.185c-.058.021-.173.034-.303-.117a.038.038 0 00-.042-.012.051.051 0 00-.037.04c-.004.03.022.067.073.101a.045.045 0 01-.024.082zm1.197 0a.045.045 0 01-.025-.082c.052-.034.078-.07.074-.101a.051.051 0 00-.037-.04.039.039 0 00-.042.012c-.13.151-.245.138-.303.117a.207.207 0 01-.135-.185.045.045 0 11.09 0c0 .036.028.083.076.101.061.023.134-.01.204-.091a.127.127 0 01.135-.04.14.14 0 01.1.112c.006.039 0 .116-.112.19a.046.046 0 01-.025.007z" fill="#F5F5F5"/><path d="M10.983 12.76a.045.045 0 01-.036-.072l.97-1.275a.208.208 0 00.017-.067c.008-.05.017-.112.094-.158.05-.03.109-.03.158.002.055.035.087.1.08.162-.004.037-.026.106-.127.143a.045.045 0 11-.031-.083c.03-.011.065-.032.07-.07a.085.085 0 00-.04-.077.057.057 0 00-.064 0c-.04.024-.045.05-.052.094a.271.271 0 01-.03.103l-.974 1.28a.044.044 0 01-.035.018z" fill="#FFE15A"/><path d="M11.61 11.357l-.446.535.178.536h.536l.178-.536-.446-.535z" fill="#FFE15A"/><path d="M11.61 11.287l-.496.596.197.59h.6l.196-.59-.496-.596zm-.395.615l.351-.422v.903h-.191l-.16-.481zm.631.481h-.19v-.903l.35.422-.16.481z" fill="#F5F5F5"/><path d="M13.962 13.566l.006-.099s.088-.063.045-.121c-.042-.059-.092-.07-.195-.056-.104.013-.266.01-.336.015-.07.005-.105.043-.216.011l.03-.067s-.052.005-.084.02c-.017.009-.058-.047-.099-.038-.04.009-.08.092-.144.135l.034.068s.038-.018.067.002c.03.02.039.034.088.034l.032.013s-.011.072.036.106c0 0-.054.07-.047.08.006.012.051.098.07.147l.04-.077s-.06-.054-.05-.06c.012-.007.052-.016.045-.034-.006-.018.032.002.075.009 0 0 .002.067.01.076.01.01.023.045.021.084a.056.056 0 01-.036.05l.06.017s.017-.022.028-.02c0 0-.005-.187.02-.216 0 0 .146.03.214-.007 0 0 .009.011.025.021-.006.016-.012.032-.01.036.006.01.024.01.029-.002a.306.306 0 00.007-.022.138.138 0 00.027.006c-.001.014-.001.027.002.03.009.008.025.001.026-.01v-.02a.19.19 0 00.038-.007l-.077.126-.038.015.05.025.045-.018s.042-.108.112-.14c0 0 .047.113-.011.174l.052.03.024-.053s-.009-.1.025-.166l-.04-.097z" fill="#FF4B55"/><path d="M13.115 13.245s-.022-.022-.028-.05c-.006-.028-.012-.04-.037-.048 0 0 .016.018.013.046-.002.028 0 .066.016.079l.036-.027zm.197.079s-.03.105-.12.16l-.032-.014s.096-.083.108-.154l.044.008zm-.154-.054c-.003-.004.04-.016.03-.05-.01-.034-.01-.059.01-.075 0 0 .002.029.018.047s.025.063-.001.089c0 0-.026.02-.057-.011zm.005.307a.01.01 0 01-.005-.014l.014-.028a.035.035 0 00-.014-.045.034.034 0 00-.047.014l-.014.029a.01.01 0 01-.015.005l-.008.017.027.014a.014.014 0 00.025.013.203.203 0 01.028.013l.009-.018zm.11.191l.033.006-.028.087-.029-.045.024-.048zm.082.095l-.02.037h.08v-.019l-.06-.018zm.401-.027v.022h-.092l.044-.045.048.023zm.146.016l-.046.046h.096l.002-.017-.052-.03z" fill="#4173CD"/><path d="M13.962 14.271l.006-.099s.088-.063.045-.121c-.042-.059-.092-.07-.195-.057-.104.014-.266.012-.336.016-.07.005-.105.043-.216.011l.03-.067s-.052.004-.084.02c-.017.009-.058-.047-.099-.038-.04.009-.08.092-.144.135l.034.068s.038-.019.067.002c.03.02.039.034.088.034l.032.013s-.011.072.036.106c0 0-.054.07-.047.08.006.012.051.098.07.147l.04-.077s-.06-.054-.05-.06c.012-.007.052-.016.045-.034-.006-.018.032.002.075.009 0 0 .002.067.01.076.01.01.023.045.021.084-.002.038-.036.05-.036.05l.06.017s.017-.022.028-.02c0 0-.005-.187.02-.216 0 0 .146.03.214-.007 0 0 .009.011.025.021-.006.016-.012.032-.01.036.006.01.024.01.029-.002a.29.29 0 00.007-.022.125.125 0 00.027.006c-.001.014-.001.027.002.03.009.008.025.001.026-.01v-.02a.177.177 0 00.038-.007l-.077.126-.038.015.05.025.045-.018s.042-.108.112-.14c0 0 .047.113-.011.174l.052.03.024-.053s-.009-.1.025-.166l-.04-.097z" fill="#FF4B55"/><path d="M13.115 13.95s-.022-.022-.028-.05c-.006-.028-.012-.04-.037-.048 0 0 .016.018.013.046-.002.028 0 .066.016.079l.036-.027zm.197.08s-.031.104-.121.158l-.032-.014s.096-.082.108-.152l.045.007zm-.154-.055c-.003-.004.04-.016.03-.05-.01-.034-.01-.059.01-.075 0 0 .002.029.018.047s.025.063-.001.089c0 0-.026.02-.057-.011zm.005.307a.011.011 0 01-.005-.014l.014-.028a.035.035 0 00-.014-.046.034.034 0 00-.047.015l-.014.029a.011.011 0 01-.015.005l-.008.017.027.014a.014.014 0 00.025.013.203.203 0 01.028.013l.009-.018zm.11.191l.033.006-.028.087-.029-.045.024-.049zm.082.095l-.02.037h.08v-.019l-.06-.018zm.401-.027v.022h-.092l.044-.045.048.023zm.146.016l-.046.045h.096l.002-.016-.052-.03z" fill="#4173CD"/></g><defs><clipPath id="clip0_192:4949"><path fill="#fff" transform="translate(.067)" d="M0 0h25v25H0z"/></clipPath></defs></svg>
